X: 7184
T: Cicerenella For Bagpipe
R: jig
M: 6/8
K: Aminor
|"Am"e2e a2a|e2e e2e|"Dm"f2f fgf|"Am"f2e efe|"E7"e2d ded|"Am"d2c cdc|"E7"c2B c2B|"Am"A2z:|
"Am"cBc "Dm"dcB|"Am"cBc "Dm"dcB|"Am"cBA "E7"^GAB|"Am"A2z A2B|"Am"cBc "Dm"dcd|"Am"ede "Dm"fed|"Am"cBA "E7"^GAB|"Am"A2z:|
"C"cBc ece|g2g gag|"G7"g2f fgf|"C"f2e "G7"GAB|"C"cBc ece|g2g g^fg|"G7"bag fed|"C"c2z:|
"C"g2g a2g|"G7"f2e d2e|f2f g2f|"C"e2d c2e|"A7"g2g a2g|"Dm"f2e d2e|"G7"fgf e2d|"C"c2z:|

